X: 3
T: Firefly, The
M: 6/8
L: 1/8
R: jig
K: Amaj
|:B |\ 
cEE dEE | cEE BGE | Ace aec | dcd BGE | 
cEE dEE | cEE BGE | Ace aec | dBG A2 :|
|: A |\
Ace aga | fdf ecA | d2B cBA | EGB dcB | 
Ace aga | fdf ecA |d2B cBA | EGB A2 :|
